storage/app/icons/phosphoricons/fill/crop-fill.svg

<svg xmlns="http://www.w3.org/2000/svg" fill="currentColor" viewBox="0 0 256 256"><path d="M208 32H48a16 16 0 0 0-16 16v160a16 16 0 0 0 16 16h160a16 16 0 0 0 16-16V48a16 16 0 0 0-16-16m-88 48h48a8 8 0 0 1 8 8v48a8 8 0 0 1-16 0V96h-40a8 8 0 0 1 0-16m72 96h-16v16a8 8 0 0 1-16 0v-16H88a8 8 0 0 1-8-8V96H64a8 8 0 0 1 0-16h16V64a8 8 0 0 1 16 0v96h96a8 8 0 0 1 0 16"/></svg>

<svg xmlns="http://www.w3.org/2000/svg" viewBox="0 0 256 256" fill="currentColor"><path d="M208,32H48A16,16,0,0,0,32,48V208a16,16,0,0,0,16,16H208a16,16,0,0,0,16-16V48A16,16,0,0,0,208,32ZM120,80h48a8,8,0,0,1,8,8v48a8,8,0,0,1-16,0V96H120a8,8,0,0,1,0-16Zm72,96H176v16a8,8,0,0,1-16,0V176H88a8,8,0,0,1-8-8V96H64a8,8,0,0,1,0-16H80V64a8,8,0,0,1,16,0v96h96a8,8,0,0,1,0,16Z"/></svg>
